sell-admin/src/icons/svg/fullscreen.svg

<?xml version="1.0" standalone="no"?><!DOCTYPE svg PUBLIC "-//W3C//DTD SVG 1.1//EN" "http://www.w3.org/Graphics/SVG/1.1/DTD/svg11.dtd"><svg t="1593483556337" class="icon" viewBox="0 0 1024 1024" version="1.1" xmlns="http://www.w3.org/2000/svg" p-id="1654" xmlns:xlink="http://www.w3.org/1999/xlink" width="200" height="200"><defs><style type="text/css"></style></defs><path d="M307.761596 416.00075L416.00075 307.697596l-189.182522-189.358521L345.673299 0.004H0.283998L0.004 345.097304l118.055078-118.919071L307.761596 416.00075z m598.179326 381.805017L716.206405 607.99925 607.99925 716.286404l189.182522 189.374521L678.3587 1023.996h345.389302L1023.996 678.902696l-118.055078 118.903071zM716.302404 416.00075l189.342521-189.182522L1023.996 345.6573V0.307998L678.926696 0.004 797.837767 118.083077 607.99925 307.777595 716.302404 416.00075zM307.681596 607.99925L118.339075 797.205772 0.004 678.3507v345.381302l345.093304 0.263998-118.919071-118.055078L416.00075 716.238404 307.681596 607.99925z" p-id="1655"></path></svg>

<svg class="icon" viewBox="0 0 1024 1024" xmlns="http://www.w3.org/2000/svg" width="200" height="200"><defs><style/></defs><path d="M307.762 416L416 307.699 226.818 118.339 345.673.004H.284l-.28 345.093 118.055-118.919 189.703 189.823zM905.94 797.807L716.206 607.999 608 716.286l189.183 189.375-118.823 118.335h345.389l.248-345.093-118.055 118.903zM716.302 416l189.343-189.183 118.351 118.84V.307L678.926.004l118.912 118.08-189.839 189.694L716.302 416zm-408.62 191.998L118.339 797.206.004 678.35v345.381l345.093.264-118.919-118.055 189.823-189.703L307.68 608z"/></svg>
